X:1
T:Like Zion’s Holy Mount
T:Clarence Milton Seamans, 1902
T:Like Zion’s Holy Mount
T:Public Domain
T:Public Domain
T:Public Domain
C:Clarence Milton Seamans, 1902
Z:Public Domain
%%score ( 1 2 ) ( 3 4 )
L:1/8
M:4/4
K:Db
V:1 treble 
V:2 treble 
V:3 bass 
V:4 bass 
V:1
 [FA]2 | [FA]3 [GB] [FA][DF][A,D][A,E] | [DF]6 [FA]2 | [GB]3 [FA] [EG]2 [DF]2 | [CE]6 [GA]2 | %5
w: 1.~All|they who put their trust in|God Can|ne- ver be re-|moved; They|
w: 2.~As|round a- bout Je- ru- sa-|lem The|rug- ged mount- ains|lie, So|
w: 3.~Tho’|fierce the storm in fu- ry|beat And|aw- ful thun- ders|roar, The|
w: 4.~Thus|o- ver- sha- dowed by His|love, Where|harm can ne’er be-|tide, With-|
 [Fd]3 [Fd] [Ac][GB] [FA]>[GB] | [FA]6 [DF]2 | [CE]3 [Ec] [Ed]3 [D=G] | [CA]6 || %9
w: stand se- cure like Zi- on’s|mount, By|ma- ny ag- es|proved.|
w: round a- bout His ho- ly|saints Our|God is ev- er|nigh.|
w: child- ren of the might- y|God Are|safe for- ev- er-|more.|
w: in this ref- uge safe and|sure I|ev- er would a-|bide.|
"^Refrain" [GA]>[GA] | (F2 DE [FA]2) [GB]2 | (FFDE [FA]2) [FA]>[GB] | (ECCD [EG]2) [CA]2 | %13
w: ||||
w: Like the|mount * * * of|Like * * * * the mount|God; * * * * They|
w: ||||
w: ||||
 (DDDD [DF]2) [FA]2 | [GB]3 [GB] [DG][GB][Ad][GA] | [FA]6 [FB]2 | [Ec]3 [Ac] [=Gd]2 [Gd]2 | %17
w: ||||
w: se- * * * * cure|* Zi- on’s mount, By ma-|* ny|ag- es proved. They|
w: ||||
w: ||||
 [Ge]6 [GA]>[GB] | (FFDE [FA]2) [GB]2 | (FFDE [FA]2) (AB) | (ECCD [EG]2) [CA]2 | %21
w: ||||
w: can ne- ver|be * * * * re-|re- * * * * moved; *|se- * * * * cure|
w: ||||
w: ||||
 (DDDD [DF]2) [FA]2 | [FA]3 [Fd] ([Af][Ge])([Fd][Ac]) | [GB]3 [Gc] (ed)[Ac][GB] | %24
w: |||
w: Zi- * * * * on’s|* They can * ne- *|ver be re- * moved. *|
w: |||
w: |||
 [FA]3 [DF] [CG]2 [A,C]2 | [A,D]6 |] %26
w: ||
w: ||
w: ||
w: ||
V:2
 x2 | x8 | x8 | x8 | x8 | x8 | x8 | x8 | x6 || x2 | A4- x4 | A4- x4 | G4- x4 | F4- x4 | x8 | x8 | %16
w: ||||||||||||||||
w: ||||||||||God,|of|stand|like|||
 x8 | x8 | A4- x4 | A4- x F2 x | G4- x4 | F4- x4 | x8 | x4 G2 x2 | x8 | x6 |] %26
w: ||||||||||
w: ||moved,|They stand|like|mount,|||||
V:3
 [D,D]2 | [D,D]3 [D,D] [D,D][D,A,][D,F,][D,G,] | [D,A,]6 [D,D]2 | [D,D]3 [D,A,] [C,A,]2 [D,A,]2 | %4
w: ~|~ ~ ~ ~ ~ ~|~ ~|~ ~ ~ ~|
 [A,,A,]6 A,2 | [D,A,]3 [D,A,] [D,A,][D,B,] [D,D]>[D,C] | [D,D]6 [D,A,]2 | %7
w: ~ ~|~ ~ ~ ~ ~ ~|~ ~|
 [E,A,]3 [E,A,] [E,=G,]3 [E,B,] | [A,,A,]6 || z2 | z2 [D,F,][D,G,] [D,A,]2 [D,D]2 | %11
w: ~ ~ ~ ~|Like||the mount, the ho-|
 [D,A,][D,A,][D,F,][D,G,] [D,A,]2 [D,A,]>[D,A,] | A,E,A,B, C2 [A,,A,]2 | %13
w: ly mount of God Like the ho-|ly mount of God, the holy|
 [D,A,][D,A,][D,A,][D,A,] [D,A,]2 [D,D]2 | [G,D]3 [G,D] [G,B,][G,D][F,D][E,C] | [C,D]6 [D,A,]2 | %16
w: of God; ~ ~ ~ ~|~ ~ ~ ~ ~ ~|~ ~|
 [E,A,]3 [E,C] [E,B,]2 [E,B,]2 | [A,C]6 z2 | A,A,F,G, [D,A,]2 [D,D]2 | %19
w: ~ They~can ne- ver|be|removed, can ne- ver be re-|
 [D,A,][D,A,][D,F,][D,G,] [D,A,]2 [D,A,]2 | A,E,G,B, [A,,C]2 [A,,A,]2 | %21
w: * Can ne- ver be re-|moved, can ne- ver be removed;|
 [D,A,][D,A,][D,A,][D,A,] [D,A,]2 [D,D]2 | [D,D]3 [D,D] [D,D]2 [D,D]2 | %23
w: ||
 [G,D]3 [G,C] [G,B,]2 [G,C][G,D] | [A,D]3 A, [A,,A,]2 [A,,G,]2 | [D,F,]6 |] %26
w: |||
V:4
 x2 | x8 | x8 | x8 | x6 A,2 | x8 | x8 | x8 | x6 || x2 | x8 | x8 | A,,4- x4 | x8 | x8 | x8 | x8 | %17
w: ||||~||||||||mount|||||
 x8 | D,4- x4 | x8 | A,,4- x4 | x8 | x8 | x8 | x3 A, x4 | x6 |] %26
w: |moved,||||||||

